X:1
T:Keep Thou My Way
T:Theodore Edson Perkins
T:Keep Thou My Way
T:Public Domain
T:Public Domain
C:Theodore Edson Perkins
Z:Public Domain
%%score ( 1 2 ) ( 3 4 )
L:1/8
M:6/8
K:Bb
V:1 treble 
V:2 treble 
V:3 bass 
V:4 bass 
V:1
 [DB]3 (d>c)[FB] | [Gc]2 [GB] [EG]3 | (F>G)[FA] [FB]2 [Fd] | [Fc]6 | [DB]3 (d>c)[FB] | %5
w: 1.~Keep Thou * my|O Lord, be|Thou * ev- er nigh;|is|Thy might- * y|
w: 2.~Keep Thou * my|O Lord, ev-|er * close to Thee;|in|Thine arms * of|
w: 3.~Keep Thou * my|O Lord, hide|my * life in Thine;|let|Thy sac- * red|
 [Gc]2 [GB] [EG]3 | (F>G)[EA] [DB]2 [Ec] | [DB]6 | [Fc]3 (c>B)[Fc] | [Fd]2 [Ec] [DB]3 | %10
w: weak and frail|am * I; Then, my|chang-|ing Friend, * on|my hopes de-|
w: shall my re-|fuge * be; Then, over|tran-|quil tide, * my|shall safe- ly|
w: over my path-|way * shine; Kept by|ten-|der care, * glad-|the cross I’ll|
 [Fd]3 (d>c)[Fd] | [Fe]2 [Fd] (F2 E) | [DB]3 (d>c)[FB] | [Gc]2 [GB] [EG]3 | (F>G)[EA] [DB]2 [Ec] | %15
w: pend, Till * life’s|day shall end, *|Thou ev- * er|||
w: glide; I * shall|sa- tis- fied, *|er close * to|||
w: bear; Hear * Thou|grant my prayer, *|my life * in|||
 [DB]6 |] %16
w: |
w: |
w: |
V:2
 x3 F2 x | x6 | E2 x4 | x6 | x3 F3 | x6 | E2 x4 | x6 | x3 F2 x | x6 | x3 F2 x | x3 c3 | x3 F2 x | %13
w: way,||Strong||arm,||un-||Thee,||brief|be|nigh.|
w: heart,||Safe||love,||a||bark||be|ev-|Thee.|
w: all,||O||light||Thy||ly||and|hide|Thine.|
 x6 | E2 x4 | x6 |] %16
w: |||
w: |||
w: |||
V:3
 [B,,F,]3 ([B,,F,]>[C,A,])[D,B,] | [E,B,]2 [E,B,] [E,B,]3 | (A,>B,)[E,C] [D,B,]2 [B,,B,] | %3
 [F,A,]6 | [B,,B,]3 ([B,,F,]>[C,A,])[D,B,] | [E,B,]2 [E,B,] [E,B,]3 | (A,>B,)[F,C] [F,B,]2 [F,A,] | %7
 [B,,B,]6 | [F,A,]3 (A,>G,)[F,A,] | B,2 [F,A,] [B,,B,]3 | B,3 (B,>[F,A,])B, | [A,C]2 B, [F,A,]3 | %12
 [B,,B,]3 ([B,,F,][C,A,])[D,B,] | [E,B,]2 [E,B,] [E,B,]3 | (A,>B,)[F,C] [F,B,]2 [F,A,] | %15
 [B,,B,]6 |] %16
V:4
 x6 | x6 | F,2 x4 | x6 | x6 | x6 | F,2 x4 | x6 | x3 F,2 x | B,2 x4 | B,3 B, x2 | x2 B, x3 | x6 | %13
 x6 | F,2 x4 | x6 |] %16

